img/svg/btn-close.svg

<svg xmlns="http://www.w3.org/2000/svg" preserveAspectRatio="xMidYMid" width="26" height="26" viewBox="0 0 26 26"><defs><style>.cls-2 { fill: #ffffff; }</style></defs><path d="M4.234 25.448l8.485-8.49 8.484 8.484 4.242-4.242-8.484-8.484 8.484-8.484-4.242-4.243-8.484 8.485-8.485-8.485-4.242 4.243 8.484 8.487-8.484 8.487 4.242 4.242z" id="path-1" class="cls-2" fill-rule="evenodd"/></svg>

<svg xmlns="http://www.w3.org/2000/svg" xmlns:xlink="http://www.w3.org/1999/xlink" preserveAspectRatio="xMidYMid" width="26" height="26" viewBox="0 0 26 26">
  <defs>
    <style>

      .cls-2 {
        fill: #ffffff;
      }
    </style>
  </defs>
  <path d="M4.234,25.448 C4.234,25.448 12.719,16.958 12.719,16.958 C12.719,16.958 21.203,25.442 21.203,25.442 C21.203,25.442 25.445,21.200 25.445,21.200 C25.445,21.200 16.961,12.716 16.961,12.716 C16.961,12.716 25.445,4.232 25.445,4.232 C25.445,4.232 21.203,-0.011 21.203,-0.011 C21.203,-0.011 12.719,8.474 12.719,8.474 C12.719,8.474 4.234,-0.011 4.234,-0.011 C4.234,-0.011 -0.008,4.232 -0.008,4.232 C-0.008,4.232 8.476,12.719 8.476,12.719 C8.476,12.719 -0.008,21.206 -0.008,21.206 C-0.008,21.206 4.234,25.448 4.234,25.448 Z" id="path-1" class="cls-2" fill-rule="evenodd"/>
</svg>
